localPackages/DesignSystem/Sources/DesignSystem/Resources/Assets.xcassets/IconSet/ic-cog-wheel-filled.imageset/ic-cog-wheel-filled.svg

<svg width="24" height="24" viewBox="0 0 24 24" fill="none" xmlns="http://www.w3.org/2000/svg">
<g id="ic-cog-wheel-filled">
<path id="Icon" fill-rule="evenodd" clip-rule="evenodd" d="M1.91861 14.0652L3.59535 14.5969C3.89164 14.6909 4.12328 14.9202 4.24307 15.207C4.36368 15.4957 4.36245 15.8238 4.21805 16.1014L3.40359 17.6673C3.28282 17.8995 3.32649 18.1832 3.51149 18.3683L5.62881 20.487C5.814 20.6724 6.09801 20.7161 6.33037 20.5951L7.8949 19.7802C8.17225 19.6358 8.50009 19.6345 8.78859 19.7552C8.815 19.7662 8.84092 19.7782 8.86629 19.7911L9.42493 20.4894L9.92907 22.0812C10.0081 22.3305 10.2395 22.5 10.5011 22.5H13.4858C13.7473 22.5 13.9788 22.3305 14.0578 22.0812L14.5896 20.402C14.6833 20.1062 14.912 19.8749 15.1982 19.7552C15.4867 19.6345 15.8146 19.6358 16.0919 19.7802L17.6565 20.5951C17.8888 20.7161 18.1728 20.6724 18.358 20.487L20.4753 18.3683C20.6603 18.1832 20.704 17.8995 20.5832 17.6673L19.7672 16.0983C19.6238 15.8226 19.6225 15.4969 19.7424 15.2102C19.8623 14.9235 20.0949 14.6949 20.3917 14.6029L22.0777 14.0803C22.3288 14.0024 22.5 13.7701 22.5 13.5072V10.5199C22.5 10.2584 22.3306 10.0271 22.0814 9.94801L20.4046 9.41623C20.1084 9.32226 19.8767 9.093 19.7569 8.80619C19.6363 8.51744 19.6376 8.18941 19.7819 7.91179L20.5964 6.34587C20.7172 6.11368 20.6735 5.83001 20.4885 5.64489L18.3712 3.52613C18.186 3.34082 17.902 3.29708 17.6696 3.4181L16.1044 4.23332C15.8275 4.37753 15.5002 4.37877 15.2122 4.25831C14.926 4.13859 14.6974 3.90707 14.6042 3.61116L14.0714 1.91973C13.9927 1.66991 13.761 1.5 13.4991 1.5H10.5142C10.2527 1.5 10.0212 1.66946 9.94224 1.91883L9.41039 3.59805C9.31671 3.89381 9.08799 4.12512 8.80176 4.24481C8.51325 4.36545 8.18541 4.36421 7.90806 4.21976L6.34388 3.4051C6.11218 3.28443 5.82902 3.32754 5.64374 3.51171L3.51273 5.62995C3.32659 5.81498 3.2823 6.09951 3.40341 6.33235L4.21805 7.89862C4.36245 8.17624 4.36368 8.50426 4.24307 8.79301C4.12328 9.07983 3.89164 9.30909 3.59535 9.40305L1.91861 9.93484C1.66935 10.0139 1.5 10.2453 1.5 10.5068V13.4932C1.5 13.7547 1.66935 13.9861 1.91861 14.0652ZM12 9C10.3431 9 9 10.3431 9 12C9 13.6569 10.3431 15 12 15C13.6569 15 15 13.6569 15 12C15 10.3431 13.6569 9 12 9Z" fill="#0F0F0F"/>
</g>
</svg>

<svg xmlns="http://www.w3.org/2000/svg" width="24" height="24" viewBox="0 0 24 24">
  <g class="ic-cog-wheel-filled">
    <path fill-rule="evenodd" d="m1.919 14.065 1.676.532c.297.094.528.323.648.61.12.289.12.617-.025.894l-.814 1.566a.6.6 0 0 0 .107.701l2.118 2.119a.6.6 0 0 0 .701.108l1.565-.815a1.054 1.054 0 0 1 .971.011l.559.698.504 1.592a.6.6 0 0 0 .572.419h2.985a.6.6 0 0 0 .572-.419l.532-1.679c.093-.296.322-.527.608-.647.289-.12.617-.12.894.025l1.565.815a.6.6 0 0 0 .701-.108l2.117-2.119a.6.6 0 0 0 .108-.7l-.816-1.57a1.048 1.048 0 0 1-.025-.888 1.05 1.05 0 0 1 .65-.607l1.686-.523a.6.6 0 0 0 .422-.573V10.52a.6.6 0 0 0-.419-.572l-1.676-.532a1.059 1.059 0 0 1-.648-.61c-.12-.289-.12-.617.025-.894l.814-1.566a.6.6 0 0 0-.108-.701l-2.117-2.119a.6.6 0 0 0-.701-.108l-1.566.815a1.052 1.052 0 0 1-.892.025 1.055 1.055 0 0 1-.608-.647l-.533-1.691a.6.6 0 0 0-.572-.42h-2.985a.6.6 0 0 0-.572.419l-.532 1.68a1.057 1.057 0 0 1-.608.646c-.289.12-.617.12-.894-.025l-1.564-.815a.6.6 0 0 0-.7.107L3.513 5.63a.6.6 0 0 0-.11.702L4.218 7.9c.144.277.146.605.025.894-.12.287-.351.516-.648.61l-1.676.532a.6.6 0 0 0-.419.572v2.986a.6.6 0 0 0 .419.572ZM6.235 5.04l.01.006-.03.015.02-.02ZM21 12.844l-.015.005.015-.016v.01ZM12 9a3 3 0 1 0 0 6 3 3 0 0 0 0-6Z" class="Icon"/>
  </g>
</svg>
